assets/logos/auto-retroachievements.svg

<svg width="480" height="320" version="1.1" viewBox="0 0 127 84.667" xmlns="http://www.w3.org/2000/svg" xmlns:xlink="http://www.w3.org/1999/xlink">
 <defs>
  <linearGradient id="a" x1="42.062" x2="10.583" y1="13.229" y2="94.157" gradientUnits="userSpaceOnUse">
   <stop stop-color="#f37329" offset="0"/>
   <stop stop-color="#a10705" offset="1"/>
  </linearGradient>
 </defs>
 <rect width="127" height="84.667" ry="4.2333" fill="url(#a)" stroke-linecap="square" stroke-linejoin="round" stroke-width=".52917" style="paint-order:stroke fill markers"/>
 <g transform="matrix(2.1167 0 0 2.1167 38.1 16.933)">
  <rect width="24" height="24" fill="none"/>
  <path d="m19 5h-2v-2h-10v2h-2c-1.1 0-2 0.9-2 2v1c0 2.55 1.92 4.63 4.39 4.94 0.63 1.5 1.98 2.63 3.61 2.96v3.1h-4v2h10v-2h-4v-3.1c1.63-0.33 2.98-1.46 3.61-2.96 2.47-0.31 4.39-2.39 4.39-4.94v-1c0-1.1-0.9-2-2-2zm-14 3v-1h2v3.82c-1.16-0.42-2-1.52-2-2.82zm7 6c-1.65 0-3-1.35-3-3v-6h6v6c0 1.65-1.35 3-3 3zm7-6c0 1.3-0.84 2.4-2 2.82v-3.82h2z" fill="#fff"/>
 </g>
 <style type="text/css">.st0{fill:#FC0C18;}
	.st1{fill:#FC0C18;}</style>
</svg>

<?xml version="1.0" encoding="UTF-8" standalone="no"?>
<!-- Created with Inkscape (http://www.inkscape.org/) -->

<svg
   width="480"
   height="320"
   viewBox="0 0 127 84.666667"
   version="1.1"
   id="svg1543"
   inkscape:export-filename="/home/vitor/Dev/es-theme-material-tv-3-2/assets/logos/atarilynx.png"
   inkscape:export-xdpi="96"
   inkscape:export-ydpi="96"
   inkscape:version="1.1.1 (3bf5ae0d25, 2021-09-20)"
   sodipodi:docname="auto-retroachievements.svg"
   xmlns:inkscape="http://www.inkscape.org/namespaces/inkscape"
   xmlns:sodipodi="http://sodipodi.sourceforge.net/DTD/sodipodi-0.dtd"
   xmlns:xlink="http://www.w3.org/1999/xlink"
   xmlns="http://www.w3.org/2000/svg"
   xmlns:svg="http://www.w3.org/2000/svg">
  <sodipodi:namedview
     id="namedview1545"
     pagecolor="#505050"
     bordercolor="#eeeeee"
     borderopacity="1"
     inkscape:pageshadow="0"
     inkscape:pageopacity="0"
     inkscape:pagecheckerboard="0"
     inkscape:document-units="px"
     showgrid="false"
     units="px"
     width="640px"
     inkscape:snap-page="true"
     showguides="true"
     inkscape:guide-bbox="true"
     inkscape:zoom="1.4039016"
     inkscape:cx="243.96297"
     inkscape:cy="139.61093"
     inkscape:window-width="1920"
     inkscape:window-height="1019"
     inkscape:window-x="0"
     inkscape:window-y="30"
     inkscape:window-maximized="1"
     inkscape:current-layer="layer1">
    <sodipodi:guide
       position="10.583333,71.4375"
       orientation="-1,0"
       id="guide2978"
       inkscape:label=""
       inkscape:locked="false"
       inkscape:color="rgb(0,0,255)" />
    <sodipodi:guide
       position="116.41667,13.229167"
       orientation="-1,0"
       id="guide2980"
       inkscape:label=""
       inkscape:locked="false"
       inkscape:color="rgb(0,0,255)" />
    <sodipodi:guide
       position="10.583333,71.4375"
       orientation="0,1"
       id="guide2982"
       inkscape:label=""
       inkscape:locked="false"
       inkscape:color="rgb(0,0,255)" />
    <sodipodi:guide
       position="116.41667,13.229167"
       orientation="0,1"
       id="guide2984"
       inkscape:label=""
       inkscape:locked="false"
       inkscape:color="rgb(0,0,255)" />
  </sodipodi:namedview>
  <defs
     id="defs1540">
    <linearGradient
       inkscape:collect="always"
       id="linearGradient2856">
      <stop
         style="stop-color:#f37329;stop-opacity:1"
         offset="0"
         id="stop2852" />
      <stop
         style="stop-color:#a10705;stop-opacity:1"
         offset="1"
         id="stop2854" />
    </linearGradient>
    <linearGradient
       inkscape:collect="always"
       xlink:href="#linearGradient2856"
       id="linearGradient2858"
       x1="42.062"
       y1="13.229167"
       x2="10.583333"
       y2="94.156868"
       gradientUnits="userSpaceOnUse" />
    <clipPath
       id="clip1">
      <path
         d="m 249,0 h 75 v 124.51172 h -75 z m 0,0"
         id="path2" />
    </clipPath>
    <clipPath
       id="clip2">
      <path
         d="m 421,0 h 90 v 124.51172 h -90 z m 0,0"
         id="path5" />
    </clipPath>
    <clipPath
       id="clip3">
      <path
         d="m 513,0 h 28 v 124.51172 h -28 z m 0,0"
         id="path8" />
    </clipPath>
    <clipPath
       id="clip4">
      <path
         d="m 659,4 h 86.87109 V 124 H 659 Z m 0,0"
         id="path11" />
    </clipPath>
    <marker
       id="DefaultArrow2"
       markerUnits="strokeWidth"
       viewBox="0 0 1 1"
       markerWidth="1"
       markerHeight="1"
       overflow="visible"
       orient="auto">
      <!-- REF_ARROW_STRAIGHT (-2) -->
      <g
         transform="scale(0.0092592592)"
         id="g8989">
        <!-- 1/108 -->
        <path
           d="M -9 54 L -9 -54 L 117 0 z"
           id="path8987" />
      </g>
    </marker>
    <marker
       id="DefaultArrow3"
       markerUnits="strokeWidth"
       viewBox="0 0 1 1"
       markerWidth="1"
       markerHeight="1"
       overflow="visible"
       orient="auto">
      <!-- REF_ARROW_ANGLED -->
      <g
         transform="scale(0.0092592592)"
         id="g8994">
        <path
           d="M -27 54 L -9 0 L -27 -54 L 135 0 z"
           id="path8992" />
      </g>
    </marker>
    <marker
       id="DefaultArrow4"
       markerUnits="strokeWidth"
       viewBox="0 0 1 1"
       markerWidth="1"
       markerHeight="1"
       overflow="visible"
       orient="auto">
      <!-- REF_ARROW_ROUNDED -->
      <g
         transform="scale(0.0092592592)"
         id="g8999">
        <path
           d="M -9,0 L -9,-45 C -9,-51.708 2.808,-56.580 9,-54 L 117,-9 C 120.916,-7.369 126.000,-4.242 126,0 C 126,4.242 120.916,7.369 117,9 L 9,54 C 2.808,56.580 -9,51.708 -9,45 z"
           id="path8997" />
      </g>
    </marker>
    <marker
       id="DefaultArrow5"
       markerUnits="strokeWidth"
       viewBox="0 0 1 1"
       markerWidth="1"
       markerHeight="1"
       overflow="visible"
       orient="auto">
      <!-- REF_ARROW_SPOT -->
      <g
         transform="scale(0.0092592592)"
         id="g9004">
        <path
           d="M -54, 0 C -54,29.807 -29.807,54 0,54 C 29.807,54 54,29.807 54,0 C 54,-29.807 29.807,-54 0,-54 C -29.807,-54 -54,-29.807 -54,0 z"
           id="path9002" />
      </g>
    </marker>
    <marker
       id="DefaultArrow6"
       markerUnits="strokeWidth"
       viewBox="0 0 1 1"
       markerWidth="1"
       markerHeight="1"
       overflow="visible"
       orient="auto">
      <!-- REF_ARROW_DIAMOND -->
      <g
         transform="scale(0.0092592592)"
         id="g9009">
        <path
           d="M -63,0 L 0,63 L 63,0 L 0,-63 z"
           id="path9007" />
      </g>
    </marker>
    <marker
       id="DefaultArrow7"
       markerUnits="strokeWidth"
       viewBox="0 0 1 1"
       markerWidth="1"
       markerHeight="1"
       overflow="visible"
       orient="auto">
      <!-- REF_ARROW_FEATHER -->
      <g
         transform="scale(0.0092592592)"
         id="g9014">
        <path
           d="M 18,-54 L 108,-54 L 63,0 L 108,54 L 18, 54 L -36,0 z"
           id="path9012" />
      </g>
    </marker>
    <marker
       id="DefaultArrow8"
       markerUnits="strokeWidth"
       viewBox="0 0 1 1"
       markerWidth="1"
       markerHeight="1"
       overflow="visible"
       orient="auto">
      <!-- REF_ARROW_FEATHER2 -->
      <g
         transform="scale(0.0092592592)"
         id="g9019">
        <path
           d="M -36,0 L 18,-54 L 54,-54 L 18,-18 L 27,-18 L 63,-54 L 99,-54 L 63,-18 L 72,-18 L 108,-54 L 144,-54 L 90,0 L 144,54 L 108,54 L 72,18 L 63,18 L 99,54 L 63,54 L 27,18 L 18,18 L 54,54 L 18,54 z"
           id="path9017" />
      </g>
    </marker>
    <marker
       id="DefaultArrow9"
       markerUnits="strokeWidth"
       viewBox="0 0 1 1"
       markerWidth="1"
       markerHeight="1"
       overflow="visible"
       orient="auto">
      <!-- REF_ARROW_HOLLOWDIAMOND -->
      <g
         transform="scale(0.0092592592)"
         id="g9024">
        <path
           d="M 0,45 L -45,0 L 0, -45 L 45, 0 z M 0, 63 L-63, 0 L 0, -63 L 63, 0 z"
           id="path9022" />
      </g>
    </marker>
    <filter
       id="StainedFilter">
      <feBlend
         mode="multiply"
         in2="BackgroundImage"
         in="SourceGraphic"
         result="blend"
         id="feBlend9027" />
      <feComposite
         in="blend"
         in2="SourceAlpha"
         operator="in"
         result="comp"
         id="feComposite9029" />
    </filter>
    <filter
       id="BleachFilter">
      <feBlend
         mode="screen"
         in2="BackgroundImage"
         in="SourceGraphic"
         result="blend"
         id="feBlend9032" />
      <feComposite
         in="blend"
         in2="SourceAlpha"
         operator="in"
         result="comp"
         id="feComposite9034" />
    </filter>
    <filter
       id="InvertTransparencyBitmapFilter">
      <feComponentTransfer
         id="feComponentTransfer9043">
        <feFuncR
           type="gamma"
           amplitude="1.055"
           exponent=".416666666"
           offset="-0.055"
           id="feFuncR9037" />
        <feFuncG
           type="gamma"
           amplitude="1.055"
           exponent=".416666666"
           offset="-0.055"
           id="feFuncG9039" />
        <feFuncB
           type="gamma"
           amplitude="1.055"
           exponent=".416666666"
           offset="-0.055"
           id="feFuncB9041" />
      </feComponentTransfer>
      <feComponentTransfer
         id="feComponentTransfer9053">
        <feFuncR
           type="linear"
           slope="-1"
           intercept="1"
           id="feFuncR9045" />
        <feFuncG
           type="linear"
           slope="-1"
           intercept="1"
           id="feFuncG9047" />
        <feFuncB
           type="linear"
           slope="-1"
           intercept="1"
           id="feFuncB9049" />
        <feFuncA
           type="linear"
           slope="1"
           intercept="0"
           id="feFuncA9051" />
      </feComponentTransfer>
      <feComponentTransfer
         id="feComponentTransfer9061">
        <feFuncR
           type="gamma"
           amplitude="1"
           exponent="2.4"
           offset="0"
           id="feFuncR9055" />
        <feFuncG
           type="gamma"
           amplitude="1"
           exponent="2.4"
           offset="0"
           id="feFuncG9057" />
        <feFuncB
           type="gamma"
           amplitude="1"
           exponent="2.4"
           offset="0"
           id="feFuncB9059" />
      </feComponentTransfer>
    </filter>
    <inkscape:perspective
       sodipodi:type="inkscape:persp3d"
       inkscape:vp_x="0 : 526.18109 : 1"
       inkscape:vp_y="0 : 1000 : 0"
       inkscape:vp_z="744.09448 : 526.18109 : 1"
       inkscape:persp3d-origin="372.04724 : 350.78739 : 1"
       id="perspective10" />
    <inkscape:perspective
       id="perspective2824"
       inkscape:persp3d-origin="0.5 : 0.33333333 : 1"
       inkscape:vp_z="1 : 0.5 : 1"
       inkscape:vp_y="0 : 1000 : 0"
       inkscape:vp_x="0 : 0.5 : 1"
       sodipodi:type="inkscape:persp3d" />
  </defs>
  <g
     inkscape:label="Camada 1"
     inkscape:groupmode="layer"
     id="layer1">
    <rect
       style="opacity:1;fill:url(#linearGradient2858);fill-opacity:1;stroke-width:0.529167;stroke-linecap:square;stroke-linejoin:round;paint-order:stroke fill markers"
       id="rect1569"
       width="127"
       height="84.666664"
       x="0"
       y="0"
       ry="4.2333331"
       inkscape:export-filename="/home/vitor/Dev/es-theme-material-tv-3-2/assets/logo/fbn.png"
       inkscape:export-xdpi="96"
       inkscape:export-ydpi="96" />
    <g
       style="fill:#000000"
       id="g21035"
       transform="matrix(2.1166667,0,0,2.1166667,38.1,16.933333)">
      <rect
         fill="none"
         height="24"
         width="24"
         id="rect21023"
         x="0"
         y="0" />
      <path
         d="M 19,5 H 17 V 3 H 7 V 5 H 5 C 3.9,5 3,5.9 3,7 v 1 c 0,2.55 1.92,4.63 4.39,4.94 0.63,1.5 1.98,2.63 3.61,2.96 V 19 H 7 v 2 h 10 v -2 h -4 v -3.1 c 1.63,-0.33 2.98,-1.46 3.61,-2.96 C 19.08,12.63 21,10.55 21,8 V 7 C 21,5.9 20.1,5 19,5 Z M 5,8 V 7 h 2 v 3.82 C 5.84,10.4 5,9.3 5,8 Z m 7,6 C 10.35,14 9,12.65 9,11 V 5 h 6 v 6 c 0,1.65 -1.35,3 -3,3 z m 7,-6 c 0,1.3 -0.84,2.4 -2,2.82 V 7 h 2 z"
         id="path21025"
         style="fill:#ffffff" />
    </g>
  </g>
  <style
     type="text/css"
     id="style3952">
	.st0{fill:#FC0C18;}
	.st1{fill:#FC0C18;}
</style>
</svg>
